Sources/FrostedUI/Resources/Icons.xcassets/monitor12.imageset/monitor-12.svg

<svg width="12" height="12" viewBox="0 0 12 12" fill="none" xmlns="http://www.w3.org/2000/svg" data-fui-icon="true">
  <path
    d="M9.625 1.125C10.5915 1.125 11.375 1.90851 11.375 2.875V7.625C11.375 8.59151 10.5915 9.375 9.625 9.375H8.14844V9.9209C8.49156 9.98978 8.75 10.2929 8.75 10.6562C8.75 11.0705 8.41421 11.4062 8 11.4062H4C3.58579 11.4062 3.25 11.0705 3.25 10.6562C3.25 10.2929 3.50844 9.98978 3.85156 9.9209V9.375H2.375C1.40851 9.375 0.625 8.59152 0.625 7.625V2.875C0.625 1.9085 1.4085 1.125 2.375 1.125H9.625ZM5.35156 9.90625H6.64844V9.375H5.35156V9.90625ZM2.125 7.625C2.125 7.76308 2.23692 7.875 2.375 7.875H9.625C9.76309 7.875 9.875 7.76309 9.875 7.625V7.48438H2.125V7.625ZM2.375 2.625C2.23693 2.625 2.125 2.73693 2.125 2.875V5.98438H9.875V2.875C9.875 2.73692 9.76308 2.625 9.625 2.625H2.375Z"
    fill="currentColor"
  />
</svg>

<svg xmlns="http://www.w3.org/2000/svg" width="12" height="12" fill="none" data-fui-icon="true" viewBox="0 0 12 12"><path fill="currentColor" d="M9.625 1.125c.966 0 1.75.784 1.75 1.75v4.75a1.75 1.75 0 0 1-1.75 1.75H8.148v.546A.75.75 0 0 1 8 11.406H4a.75.75 0 0 1-.148-1.485v-.546H2.375a1.75 1.75 0 0 1-1.75-1.75v-4.75c0-.966.784-1.75 1.75-1.75zM5.352 9.906h1.296v-.531H5.352zM2.125 7.625c0 .138.112.25.25.25h7.25a.25.25 0 0 0 .25-.25v-.14h-7.75zm.25-5a.25.25 0 0 0-.25.25v3.11h7.75v-3.11a.25.25 0 0 0-.25-.25z"/></svg>
